X:1
T:A minor                 Amos Pilsbury, 1799 Arranged by  Jeremiah Ingalls, 1805
T:Anonymous author, before 1793 87. 87. 87.
T:A Parting Blessing
T:Treble-Tenor-Bass Transcribed from Ingalls' Christian Harmony , 1805 Counter by B. C. Johnston, 2017.
%%score [ 1 2 3 4 ]
L:1/8
Q:1/4=120
M:4/4
K:C
V:1 treble nm="Tr." snm="Tr."
V:2 treble nm="C." snm="C."
V:3 treble-8 nm="T." snm="T."
V:4 bass nm="B." snm="B."
V:1
"^1. Je–sus, grant us  all    a         bles–sing,   Send it down, Lord, from above;  May   we  all    go            home a – praising,   And    re  –   joi  – cing     in   thy  love." A2 e2 d2 B2 | %1
 c2 BA ^G2 A2- | A4 c2 B2 | c2 d2 c2 A2 | B6 B2 | A2 B2 c4 | z2 e2 d2 c2 | B6 A2 | cd ed c4 | %9
 A2 ^G2 A4 | %10
 z2"^Farewell,  brethren,   farewell,  sisters,                 Till    we     all    shall  meet  a – gain." cB A2 B2 | %11
 c6 ed | c2 A2 B4 | z2 A2 cd ed | c4 A2 ^G2 | A8 |] %16
V:2
 A2 c2 A2 B2 | c2 dc B2 A2- | A4 A2 ^G2 | A2 B2 A2 A2 | B6 B2 | A2 G2 E4 | z2 E2 A2 c2 | B6 cB | %8
 cB cd c4 | A2 B2 A4 | z2 cB A2 G2 | E6 cB | A2 c2 B4 | z2 AB cA BA | A4 cA B2 | A8 |] %16
V:3
"^2. Je–sus,  par–don  all  our     fol – lies,      Since together we have been;     Make  us  hum–ble,          make  us  ho – ly,     Cleanse us  all    from    eve – ry  sin." A2 ^G2 A2 B2 | %1
 e2 dc B2 A2- | A4 A2 ^G2 | A2 B2 e2 ^d2 | e6 ed | c2 df e4 | z2 cB A2 c2 | d6 cd | ef gf e4 | %9
 cA B2 A4 | %10
 z2"^Farewell,  brethren,   farewell,  sisters,                 Till    we     all    shall  meet  a – gain." ed c2 df | %11
 e6 cB | A2 c2 d4 | z2 cd ef gf | e4 cA B2 | A8 |] %16
V:4
"^3. May thy blessing,  Lord,  go  with  us      To each one's respective home;  And  the  presence           of     our   Je – sus,   Rest     up   –  on   us       eve  – ry  one." A,2 E,2 D,2 E,2 | %1
 C,2 D,2 E,2 A,,2- | A,,4 A,,2 E,2 | A,2 G,2 A,2 B,2 | E,6 E,2 | A,2 G,2 E,4 | z2 C,2 D,2 C,2 | %7
 G,6 A,2 | E,D, C,D, E,4 | E,2 E,2 A,,4 | %10
 z2"^___________________________________________________________________________________\nTune composed by Amos Pilsbury in 1799, as \nKingston\n.\nA folk hymn (Jackson 1953b, no. 346). See David Music (1995) for a discussion of the history of this tune.\nWords by an anonymous author, first published 1793, sometimes attributed to George Askins (died 1816),  \n   unlikely since he emigated to the United States in 1801 (Richard Hulan, in Steel and Hulan 2010)." C,2 C,2 G,2 | %11
 C6 A,2 | A,2 A,2 G,4 | z2 A,2 E,2 E,2 | A,4 E,2 E,2 | A,,8 |] %16

